shader noisetest
(
float posx = 0.2,
float posy = 0.3,
float posz = 1.2,
float s = 0 
[[
int lockgeom = 0,
string widget = "null",
]],
float t = 0 
[[
int lockgeom = 0,
string widget = "null",
]],
output color resultRGB = 0
)

{
float ncolor = cellnoise(t); // refer to docs

resultRGB = color(ncolor,ncolor,ncolor);
}
